build/documents/DescriptionSolid.svg

<svg xmlns="http://www.w3.org/2000/svg" fill="none" viewBox="0 0 24 24" focusable="false"><path d="M0 0H24V24H0z"/><path fill="#74767B" fill-rule="evenodd" d="M4 6C4 4.34315 5.34315 3 7 3L13.4803 3C14.2425 3 14.9761 3.2901 15.5321 3.81139L19.0518 7.11108C19.6568 7.67823 20 8.47047 20 9.2997L20 18C20 19.6569 18.6569 21 17 21L7 21C5.34315 21 4 19.6569 4 18L4 6ZM18.155 8.99999C18.4668 8.99999 18.623 8.62299 18.4025 8.4025L14.5975 4.59748C14.377 4.377 14 4.53316 14 4.84497L14 7.57479C14 8.36191 14.5982 9 15.3361 9L18.155 8.99999ZM11.35 8.99358C11.709 8.99358 12 8.70256 12 8.34358C12 7.98459 11.709 7.69358 11.35 7.69358L8.64583 7.69357C8.28685 7.69357 7.99583 7.98459 7.99583 8.34357C7.99583 8.70256 8.28685 8.99357 8.64583 8.99357L11.35 8.99358ZM16 11.8535C16 12.2124 15.709 12.5035 15.35 12.5035L8.64583 12.5035C8.28685 12.5035 7.99583 12.2124 7.99583 11.8535C7.99583 11.4945 8.28685 11.2035 8.64583 11.2035L15.35 11.2035C15.709 11.2035 16 11.4945 16 11.8535ZM15.35 16.0134C15.709 16.0134 16 15.7224 16 15.3634C16 15.0044 15.709 14.7134 15.35 14.7134L8.64583 14.7134C8.28685 14.7134 7.99583 15.0044 7.99583 15.3634C7.99583 15.7224 8.28685 16.0134 8.64583 16.0134L15.35 16.0134Z"/></svg>

<svg xmlns="http://www.w3.org/2000/svg" fill="none" viewBox="0 0 24 24" focusable="false"><path fill="#74767B" fill-rule="evenodd" d="M4 6c0-1.66 1.34-3 3-3h6.48c.76 0 1.49.29 2.05.81l3.52 3.3c.6.56.95 1.36.95 2.18V18c0 1.65-1.35 3-3 3H7c-1.66 0-3-1.35-3-3zm14.15 3c.31 0 .47-.38.25-.6l-3.81-3.81c-.22-.22-.59-.06-.59.25v2.73c0 .79.59 1.43 1.33 1.43zm-6.8-.01c.35 0 .65-.29.65-.65s-.3-.65-.65-.65H8.64c-.36 0-.65.29-.65.65s.29.65.65.65zM16 11.85c0 .36-.3.65-.65.65H8.64c-.36 0-.65-.29-.65-.65s.29-.65.65-.65h6.71c.35 0 .65.29.65.65m-.65 4.16c.35 0 .65-.29.65-.65s-.3-.65-.65-.65H8.64c-.36 0-.65.29-.65.65s.29.65.65.65z"/></svg>
